X: 143
T: No_77_His_Heart_is_Almost_Covered_with_Night.krn
N: Derived from No_77_His_Heart_is_Almost_Covered_with_Night.krn
%%abc-version 2.0
%%abcx-abcm2ps-target-version 5.9.1 (29 Sep 2008)
%%abc-creator hum2abc beta
%%abcx-conversion-date 2019/03/15 08:37:56
%%humdrum-veritas 444780594
%%humdrum-veritas-data 1543794720
%%linebreak <none>
%%barnumbers 0
L: 1/8
M: 2/4
K: C clef=bass
[K:clef=bass][M:2/4]G,G, EE | 
E3C | 
C2D2 | 
D2C/C3/ ]|:  
(3CCA,G,2 ||  
[M:3/4]!accent!G,2E,2(3A,G,G, | 
!accent!G,3/G,/G,2E,E, | 
!accent!G,2G,2(3A,G,G, | 
!accent!G,3/G,/G,2E,E, | 
G,2G,4 | 
D/D3/D2C/C3/ :|]  



